astro/public/img/icons/auth-system-scale.svg

<svg height="70" viewBox="0 0 70 70" width="70" xmlns="http://www.w3.org/2000/svg" xmlns:xlink="http://www.w3.org/1999/xlink"><linearGradient id="a" x1="0%" x2="100%" y1="0%" y2="100%"><stop offset="0" stop-color="#a4aebe"/><stop offset="1" stop-color="#2d53f5"/></linearGradient><path d="m51.2333206 0c.9756689 0 1.7666794.79101054 1.7666794 1.76667941v45.93328239c0 .9756688-.7910105 1.7666794-1.7666794 1.7666794h-22.9666412v1.7666794c0 .9756689-.7910105 1.7666794-1.7666794 1.7666794h-24.73332059c-.97566887 0-1.76667941-.7910105-1.76667941-1.7666794v-24.7333206c0-.9756689.79101054-1.7666794 1.76667941-1.7666794h1.76667941v-22.96664119c0-.97566887.79091496-1.76667941 1.76667941-1.76667941zm-26.5 28.2666794h-21.19996178v21.1999618h21.19996178zm24.7333206-24.73332058h-42.40001914v21.19996178h19.43337794c.9756689 0 1.7666794.7910105 1.7666794 1.7666794v19.4333779h21.1999618zm-3.5332633 3.53326324v10.59998084c0 .9756689-.7910105 1.7666795-1.7666794 1.7666795-.9756688 0-1.7666794-.7910106-1.7666794-1.7666795v-4.5685733l-9.3509565 9.3509565c-.3311807.3313719-.7804969.5176551-1.2490244.5176551-.4683363 0-.9174613-.186092-1.2487376-.5172727-.6900793-.6897926-.6901749-1.8084474-.0003823-2.4984311l9.3509565-9.3509565h-4.5685733c-.9756689 0-1.7666794-.79101055-1.7666794-1.76667943 0-.97566887.7910105-1.76667941 1.7666794-1.76667941z" fill="url(#a)" transform="translate(9 9)"/></svg>

<svg xmlns="http://www.w3.org/2000/svg" width="70" height="70"><linearGradient id="a" x1="0%" x2="100%" y1="0%" y2="100%"><stop offset="0" stop-color="#a4aebe"/><stop offset="1" stop-color="#2d53f5"/></linearGradient><path fill="url(#a)" d="M51.233 0C52.21 0 53 .791 53 1.767V47.7c0 .976-.791 1.767-1.767 1.767H28.267v1.766c0 .976-.791 1.767-1.767 1.767H1.767A1.767 1.767 0 0 1 0 51.233V26.5c0-.976.791-1.767 1.767-1.767h1.766V1.767C3.533.79 4.324 0 5.3 0zm-26.5 28.267h-21.2v21.2h21.2zM49.467 3.533h-42.4v21.2H26.5c.976 0 1.767.791 1.767 1.767v19.433h21.2zm-3.534 3.534v10.6a1.767 1.767 0 0 1-3.533 0v-4.569l-9.35 9.351a1.766 1.766 0 1 1-2.5-2.498l9.352-9.351h-4.569a1.767 1.767 0 0 1 0-3.533z" transform="translate(9 9)"/></svg>
